X: 2
T: Cleveland Park
R: jig
M: 6/8
L: 1/8
K: Amin
EAB cBA|FAB cBA|^FAB cBA|BdB GAB|
EAB cBA|FAB cBA|BdB GAB|BAG A3:|
Ace aec|def ecA|FGA GAB|cBA ^FAB|
Ace aec|def ecA|FGA GAB|BAG A3|
Ace aec|def ecA|FGA GAB|cBA BA^F|
EAB cBA|FAB cBA|BdB GAB|BAG A3|


Tune 547	Setting 24775

